lib/icons/coins.svg

<svg id="Coins" data-name="Layer 1" xmlns="http://www.w3.org/2000/svg" viewBox="0 0 72 72"><defs><style>.cls-1 { stroke: var(--icon-stroke-color-secondary, var(--icon-stroke-color, currentColor)); } .cls-1, .cls-2 { fill: none; stroke-miterlimit: 10; stroke-width:var(--icon-stroke-width-m, calc(var(--icon-stroke-width, 5) * 1)); } .cls-2 {  } .cls-3 { fill: var(--icon-fill, rgba(0, 0, 0, 0)); opacity: var(--icon-fill-opacity, 1); stroke-width: 0px; }</style></defs><path class="cls-3" d="M49.5,13.5c-13.5,0-13.5,4.5-13.5,4.5v36s0,4.5,13.5,4.5,13.5-4.5,13.5-4.5V18s0-4.5-13.5-4.5Z"/><path class="cls-1" d="M9,31.5s0,4.5,13.5,4.5,13.5-4.5,13.5-4.5"/><path class="cls-1" d="M9,22.5s0,4.5,13.5,4.5,13.5-4.5,13.5-4.5"/><path class="cls-1" d="M9,40.5s0,4.5,13.5,4.5,13.5-4.5,13.5-4.5"/><polyline class="cls-2" points="9 22.5 9 31.5 9 40.5 9 49.5"/><path class="cls-2" d="M22.5,18c-13.5,0-13.5,4.5-13.5,4.5v27s0,4.5,13.5,4.5,13.5-4.5,13.5-4.5v-27s0-4.5-13.5-4.5Z"/><path class="cls-1" d="M36,27s0,4.5,13.5,4.5,13.5-4.5,13.5-4.5"/><path class="cls-1" d="M36,18s0,4.5,13.5,4.5,13.5-4.5,13.5-4.5"/><path class="cls-1" d="M36,45s0,4.5,13.5,4.5,13.5-4.5,13.5-4.5"/><path class="cls-1" d="M36,36s0,4.5,13.5,4.5,13.5-4.5,13.5-4.5"/><polyline class="cls-2" points="36 22.5 36 31.5 36 40.5 36 49.5"/><path class="cls-2" d="M49.5,13.5c-13.5,0-13.5,4.5-13.5,4.5v36s0,4.5,13.5,4.5,13.5-4.5,13.5-4.5V18s0-4.5-13.5-4.5Z"/></svg>

<svg version="1.1" id="Coins" xmlns="http://www.w3.org/2000/svg" xmlns:xlink="http://www.w3.org/1999/xlink" x="0px" y="0px" viewBox="0 0 72 72" style="enable-background:new 0 0 72 72;" xml:space="preserve"><path style="fill:none;stroke-width:var(--icon-stroke-width-m, calc(var(--icon-stroke-width, 5) * 1));stroke-miterlimit:10;" d="M9,31.5c0,0,0,4.5,13.5,4.5S36,31.5,36,31.5"/><path style="fill:none;stroke-width:var(--icon-stroke-width-m, calc(var(--icon-stroke-width, 5) * 1));stroke-miterlimit:10;" d="M9,22.5c0,0,0,4.5,13.5,4.5S36,22.5,36,22.5"/><path style="fill:none;stroke-width:var(--icon-stroke-width-m, calc(var(--icon-stroke-width, 5) * 1));stroke-miterlimit:10;" d="M9,40.5c0,0,0,4.5,13.5,4.5S36,40.5,36,40.5"/><polyline style="fill:none;stroke-width:var(--icon-stroke-width-m, calc(var(--icon-stroke-width, 5) * 1));stroke-miterlimit:10;" points="9,22.5 9,31.5 9,40.5 9,49.5 "/><path style="fill:none;stroke-width:var(--icon-stroke-width-m, calc(var(--icon-stroke-width, 5) * 1));stroke-miterlimit:10;" d="M22.5,18C9,18,9,22.5,9,22.5v27c0,0,0,4.5,13.5,4.5 S36,49.5,36,49.5v-9v-9v-9C36,22.5,36,18,22.5,18z"/><path style="fill:none;stroke-width:var(--icon-stroke-width-m, calc(var(--icon-stroke-width, 5) * 1));stroke-miterlimit:10;" d="M36,27c0,0,0,4.5,13.5,4.5S63,27,63,27"/><path style="fill:none;stroke-width:var(--icon-stroke-width-m, calc(var(--icon-stroke-width, 5) * 1));stroke-miterlimit:10;" d="M36,18c0,0,0,4.5,13.5,4.5S63,18,63,18"/><path style="fill:none;stroke-width:var(--icon-stroke-width-m, calc(var(--icon-stroke-width, 5) * 1));stroke-miterlimit:10;" d="M36,45c0,0,0,4.5,13.5,4.5S63,45,63,45"/><path style="fill:none;stroke-width:var(--icon-stroke-width-m, calc(var(--icon-stroke-width, 5) * 1));stroke-miterlimit:10;" d="M36,36c0,0,0,4.5,13.5,4.5S63,36,63,36"/><polyline style="fill:none;stroke-width:var(--icon-stroke-width-m, calc(var(--icon-stroke-width, 5) * 1));stroke-miterlimit:10;" points="36,22.5 36,31.5 36,40.5 36,49.5 "/><path style="fill:none;stroke-width:var(--icon-stroke-width-m, calc(var(--icon-stroke-width, 5) * 1));stroke-miterlimit:10;" d="M49.5,13.5C36,13.5,36,18,36,18v36 c0,0,0,4.5,13.5,4.5S63,54,63,54V31.5v-9V18C63,18,63,13.5,49.5,13.5z"/></svg>
